X:1
T:D Major Stephen Jenks, 1818
T:Joseph Hart, 1759 To the Holy Ghost               66. 86.  (S. M.)
T:Ohio
T:Transcribed from Jenks' The Harmony of Zion, 1818.
%%score [ 1 2 3 4 ]
L:1/8
Q:1/4=100
M:2/4
K:D
V:1 treble nm="Tr." snm="Tr."
V:2 treble nm="C." snm="C."
V:3 treble-8 nm="T." snm="T."
V:4 bass nm="B." snm="B."
V:1
 A2 | B2 c2 | d2 c2 | d4 | z2 A2 | B2 A>F | ^G2 G>F | E4 | z2 D2 | C2 D2 | B,3 F | F2 B2 | %12
w: 1.~Re-|vive our|droo- ping|faith;|Our|doubts and *|fears re- *|move;|And|kin- dle|in our|breasts the|
w: 2.~Come,|Ho- ly|Spi- rit,|come;|Let|thy bright *|beams a- *|rise;|Dis-|pel the|dark- ness|from our|
 ^A2 z =A | B2 d2 | A2 G2 | F2 z A | B3 d | F2 E2 | D4 |] %19
w: flames Of|ne- ver-|dy- ing|love. Of|ne- ver-|dy- ing|love.|
w: minds, And|o- pen|all our|eyes. And|o- pen|all our|eyes.|
V:2
 D2 | F2 E2 | D2 E2 | F4 | z2 D2 | F2 D>F | E2 E2 | E4 | %8
w: 3.~Cheer|our de-|spon- ding|hearts,|Thou|heav'n- ly *|Pa- ra-|clete;|
w: 4.~Con-|vince us|of our|sin;|Then|lead to *|Je- sus'|blood:|
"^Give       us    to""^And       to    our" z4 | z4 | %10
w: ||
w: ||
"^lie,        with     hum  –    ble        hope,""^wan – dering  view         re     –    veal" z4 | %11
w: |
w: |
 z4 | z2 z D | D2 D2 | D2 C2 | D2 z F | G3 F | D2 E2 | F4 |] %19
w: |At|our Re-|dee- mer's|feet. At|our Re-|dee- mer's|feet.|
w: |The|se- cret|love of|God. The|se- cret|love of|God.|
V:3
 D2 | D2 EF/G/ | F2 E2 | D4 | z2 A2 | d2 f>d | c2 B2 | A4 | z2 F2 | G2 A2 | B3 A | d2 e>d | %12
w: 5.~Show|us that * *|lo- ving|Man|That|rules the *|courts of|bliss,|The|Lord of|hosts, the|migh- ty *|
w: 6.~'Tis|thine to * *|cleanse the|heart,|To|sanc- ti- *|fy the|soul,|To|pour fresh|life on|eve- ry *|
 c2 z F | G2 A>G | F2 E2 | D2 z d | d3 d | d2 c2 | d4 |] %19
w: God, Th'e-|ter- nal *|prince of|peace. Th'e-|ter- nal|prince of|peace.|
w: part, And|new cre- *|ate the|whole. And|new cre-|ate the|whole.|
V:4
 D,2 | B,,2 A,,2 | D,2 A,,2 | D,4 | z2 D,2 | B,,2 D,2 | E,2 E,2 | A,,4 | z2 D,2 | E,2 F,2 | %10
w: 7.~If|thou, ce-|les- tial|dove,|Thine|in- flu-|ence with-|draw,|What|ea- sy|
w: 8.~No|lon- ger|burns our|love;|Our|faith and|pa- tience|fail;|Our|sin re-|
w: 9.~Dwell|there- fore|in our|hearts;|Our|minds from|bon- dage|free;|Then|shall we|
 G,3 F, | B,2 E,2 | F,2 z D, | G,,2 G,,2 | A,,2 A,,2 | D,2 z D, | G,3 B, | A,2 A,,2 | D,4 |] %19
w: vic- tims|soon we|fall To|con- science,|wrath, and|law! To|con- science,|wrath, and|law!|
w: vives, and|death and|hell Our|fee- ble|souls as-|sail. Our|fee- ble|souls as-|sail.|
w: know, and|praise and|love The|Fa- ther,|Son, and|thee. The|Fa- ther,|son, and|thee.|

